spark-frontend/src/assets/icons/gear.svg

<svg width="24" height="24" viewBox="0 0 24 24" fill="none" xmlns="http://www.w3.org/2000/svg">
    <path fill-rule="evenodd" clip-rule="evenodd" d="M15 12C15 13.6569 13.6569 15 12 15C10.3431 15 9 13.6569 9 12C9 10.3431 10.3431 9 12 9C13.6569 9 15 10.3431 15 12ZM14 12C14 13.1046 13.1046 14 12 14C10.8954 14 10 13.1046 10 12C10 10.8954 10.8954 10 12 10C13.1046 10 14 10.8954 14 12Z" fill="#969696"/>
    <path fill-rule="evenodd" clip-rule="evenodd" d="M18.3017 17.384L19.9466 14.616C20.0453 14.44 20.0042 14.224 19.8479 14.104L18.1126 12.784C18.1455 12.528 18.1701 12.272 18.1701 12C18.1701 11.728 18.1455 11.472 18.1126 11.216L19.8479 9.896C20.0042 9.776 20.0453 9.56 19.9466 9.384L18.3017 6.616C18.203 6.44 17.981 6.376 17.8 6.44L15.7522 7.24C15.3245 6.92 14.8639 6.656 14.3622 6.456L14.0497 4.336C14.025 4.144 13.8523 4 13.6467 4H10.3569C10.1513 4 9.97861 4.144 9.95393 4.336L9.64141 6.456C9.13972 6.656 8.67915 6.928 8.25148 7.24L6.2036 6.44C6.01443 6.368 5.8006 6.44 5.70191 6.616L4.05702 9.384C3.9501 9.56 3.99945 9.776 4.15571 9.896L5.89107 11.216C5.85817 11.472 5.8335 11.736 5.8335 12C5.8335 12.264 5.85817 12.528 5.89107 12.784L4.15571 14.104C3.99945 14.224 3.95833 14.44 4.05702 14.616L5.70191 17.384C5.8006 17.56 6.02266 17.624 6.2036 17.56L8.25148 16.76C8.67915 17.08 9.13972 17.344 9.64141 17.544L9.95393 19.664C9.97861 19.856 10.1513 20 10.3569 20H13.6467C13.8523 20 14.025 19.856 14.0497 19.664L14.3622 17.544C14.8639 17.344 15.3245 17.072 15.7522 16.76L17.8 17.56C17.9892 17.632 18.203 17.56 18.3017 17.384ZM17.1207 12.6565L17.047 13.2299L18.8101 14.571L17.696 16.4458L15.6055 15.6291L15.1628 15.9521C14.787 16.2263 14.3996 16.4526 13.9919 16.6151L13.4569 16.8284L13.1368 19H10.8669L10.5467 16.8284L10.0117 16.6151C9.59704 16.4498 9.2128 16.2304 8.85058 15.9593L8.40544 15.6263L6.30761 16.4458L5.19353 14.571L6.9566 13.2299L6.88291 12.6565C6.85272 12.4216 6.8335 12.2043 6.8335 12C6.8335 11.7957 6.85272 11.5784 6.88291 11.3435L6.9566 10.7701L5.19353 9.42899L6.30761 7.55423L8.39809 8.37087L8.84084 8.04787C9.2166 7.77374 9.60406 7.54742 10.0117 7.38491L10.5467 7.17163L10.8669 5H13.1368L13.4569 7.17163L13.9919 7.38491C14.4066 7.55022 14.7908 7.76964 15.1531 8.04068L15.5982 8.37374L17.696 7.55423L18.8101 9.42899L17.047 10.7701L17.1207 11.3435C17.151 11.5794 17.1701 11.7883 17.1701 12C17.1701 12.2117 17.151 12.4206 17.1207 12.6565Z" fill="#969696"/>
</svg>

<svg xmlns="http://www.w3.org/2000/svg" width="24" height="24" fill="none"><path fill="#969696" fill-rule="evenodd" d="M15 12a3 3 0 1 1-6 0 3 3 0 0 1 6 0m-1 0a2 2 0 1 1-4 0 2 2 0 0 1 4 0" clip-rule="evenodd"/><path fill="#969696" fill-rule="evenodd" d="m18.302 17.384 1.645-2.768a.396.396 0 0 0-.1-.512l-1.734-1.32c.032-.256.057-.512.057-.784s-.025-.528-.057-.784l1.735-1.32a.396.396 0 0 0 .099-.512l-1.645-2.768c-.099-.176-.321-.24-.502-.176l-2.048.8a6 6 0 0 0-1.39-.784l-.312-2.12A.4.4 0 0 0 13.647 4h-3.29a.4.4 0 0 0-.403.336l-.313 2.12c-.501.2-.962.472-1.39.784l-2.047-.8a.406.406 0 0 0-.502.176L4.057 9.384a.387.387 0 0 0 .099.512l1.735 1.32c-.033.256-.058.52-.058.784s.025.528.058.784l-1.735 1.32a.396.396 0 0 0-.099.512l1.645 2.768c.099.176.32.24.502.176l2.047-.8q.64.482 1.39.784l.313 2.12a.4.4 0 0 0 .403.336h3.29a.4.4 0 0 0 .403-.336l.312-2.12c.502-.2.963-.472 1.39-.784l2.048.8c.19.072.403 0 .502-.176m-1.181-4.728-.074.574 1.763 1.341-1.114 1.875-2.09-.817-.443.323c-.376.274-.763.5-1.171.663l-.535.213-.32 2.172h-2.27l-.32-2.172-.535-.213a5 5 0 0 1-1.161-.656l-.446-.333-2.097.82-1.114-1.875 1.763-1.341-.074-.574a5 5 0 0 1-.05-.656c0-.204.02-.422.05-.656l.074-.574-1.763-1.34 1.114-1.875 2.09.817.443-.323c.376-.274.763-.5 1.17-.663l.536-.213.32-2.172h2.27l.32 2.172.535.213a5 5 0 0 1 1.161.656l.445.333 2.098-.82L18.81 9.43l-1.763 1.341.074.574c.03.235.05.444.05.656s-.02.42-.05.656" clip-rule="evenodd"/></svg>
